public/svg/git.svg

<svg width="101" height="101" viewBox="0 0 101 101" fill="none" xmlns="http://www.w3.org/2000/svg">
<path d="M98.6663 45.7327L55.0054 2.07407C52.4925 -0.440381 48.4144 -0.440381 45.8983 2.07407L36.8319 11.1405L48.3331 22.6416C51.0058 21.7385 54.0706 22.3444 56.2011 24.4749C58.3417 26.619 58.9433 29.71 58.0183 32.3913L69.1022 43.4756C71.7839 42.5518 74.878 43.1495 77.0198 45.2948C80.0132 48.287 80.0132 53.1366 77.0198 56.1307C74.0257 59.1252 69.1761 59.1252 66.1804 56.1307C63.9288 53.8768 63.3726 50.5702 64.5124 47.7963L54.1757 37.4596L54.1745 64.6616C54.9238 65.0321 55.6082 65.5215 56.2011 66.1108C59.1944 69.103 59.1944 73.953 56.2011 76.9495C53.2069 79.9424 48.355 79.9424 45.3651 76.9495C42.3718 73.953 42.3718 69.1034 45.3651 66.1112C46.0825 65.3935 46.935 64.8251 47.8733 64.4389V36.9834C46.9336 36.5998 46.0806 36.0311 45.3651 35.3112C43.0972 33.0463 42.5519 29.7186 43.714 26.9338L32.3765 15.5952L2.43896 45.5307C-0.0766602 48.0475 -0.0766602 52.126 2.43896 54.6409L46.1007 98.3002C48.6143 100.815 52.6917 100.815 55.2085 98.3002L98.6659 54.8436C101.181 52.328 101.181 48.2471 98.6659 45.7327" fill="#DE4C36"/>
</svg>

<svg width="101" height="101" viewBox="0 0 101 101" fill="none" xmlns="http://www.w3.org/2000/svg"><path d="M98.666 45.733 55.006 2.074a6.44 6.44 0 0 0-9.108 0l-9.066 9.067 11.501 11.5a7.645 7.645 0 0 1 7.868 1.834 7.657 7.657 0 0 1 1.817 7.916l11.084 11.085c2.682-.924 5.776-.326 7.918 1.819a7.66 7.66 0 0 1 0 10.836 7.662 7.662 0 0 1-10.84 0 7.668 7.668 0 0 1-1.668-8.335L54.176 37.46l-.002 27.202c.75.37 1.434.86 2.027 1.449a7.664 7.664 0 1 1-8.328-1.672V36.983a7.57 7.57 0 0 1-2.508-1.672 7.66 7.66 0 0 1-1.651-8.377L32.377 15.595 2.439 45.531a6.442 6.442 0 0 0 0 9.11L46.101 98.3a6.44 6.44 0 0 0 9.108 0l43.457-43.457a6.444 6.444 0 0 0 0-9.111" fill="#DE4C36"/></svg>
